configs/network-logos/filecoin-logo-light.svg

<svg width="83" height="24" viewBox="0 0 83 24" fill="none" xmlns="http://www.w3.org/2000/svg">
<g clip-path="url(#clip0_11003_18183)">
<path fill-rule="evenodd" clip-rule="evenodd" d="M11.9098 23.9999C5.33637 24.0253 -0.0295608 18.6046 0.000122562 11.9434C0.0300536 5.35824 5.36982 -0.0394643 11.9879 0.000217403C18.5113 0.0394214 23.8691 5.42016 23.8181 12.1014C23.768 18.6574 18.4644 24.0212 11.9098 23.9999Z" fill="#0090FF"/>
<path fill-rule="evenodd" clip-rule="evenodd" d="M13.389 11.0302C14.4275 11.1781 15.4425 11.3223 16.489 11.4714C16.577 11.154 16.6518 10.8834 16.7377 10.5741C15.6614 10.4136 14.6343 10.2604 13.5315 10.096C13.9023 8.77324 14.2227 7.50854 14.6234 6.26977C14.7553 5.86203 15.0502 5.4793 15.3508 5.16261C15.7451 4.74754 16.2908 4.8395 16.6248 5.29561C16.7647 5.48664 16.8964 5.68867 17.0641 5.85218C17.2782 6.06062 17.5938 6.16198 17.8088 5.95904C17.9501 5.8258 17.9456 5.51232 17.9587 5.27659C17.964 5.18188 17.8533 5.07042 17.7766 4.98306C17.4032 4.55698 16.8987 4.40609 16.366 4.38362C15.1777 4.3334 14.3248 4.94407 13.6552 5.86708C12.9917 6.78183 12.7007 7.85734 12.384 8.92023C12.2917 9.2305 12.2125 9.5449 12.1196 9.88544C10.9626 9.71666 9.85266 9.55475 8.71044 9.3885C8.66995 9.69923 8.63217 9.99069 8.59189 10.3003C9.72274 10.4757 10.8047 10.6433 11.9228 10.8167C11.7731 11.4524 11.6336 12.0456 11.4902 12.6542C10.3935 12.4997 9.35369 12.3536 8.3068 12.2059C8.26242 12.5467 8.22898 12.8042 8.18939 13.1074C9.24082 13.2693 10.2545 13.4252 11.275 13.5823C11.275 13.6983 11.2875 13.7657 11.2729 13.8269C10.9473 15.2256 10.6445 16.6305 10.2793 18.0182C10.1048 18.6801 9.82399 19.319 9.27814 19.784C8.82876 20.1668 8.33502 20.1027 7.99712 19.6279C7.84445 19.4139 7.71703 19.1598 7.51543 19.0098C7.36822 18.8999 7.04057 18.8339 6.93249 18.922C6.77231 19.0527 6.65626 19.3419 6.66991 19.5542C6.68153 19.7424 6.86127 19.9627 7.02624 20.091C7.5821 20.5224 8.23626 20.585 8.89907 20.4536C10.0092 20.2332 10.7922 19.5352 11.2775 18.548C11.6588 17.7719 11.9444 16.9432 12.2143 16.1184C12.4587 15.3714 12.6245 14.5984 12.8316 13.8104C13.9219 13.9698 14.9906 14.126 16.0814 14.2854C16.1716 13.9716 16.2528 13.6878 16.3404 13.382C15.1991 13.213 14.11 13.0515 13.0117 12.8886C13.1437 12.2389 13.2612 11.6604 13.389 11.0302Z" fill="white"/>
<path d="M32.2697 17.2096V12.5156H37.4739V10.9754H32.2697V8.12961H37.7946V6.57471H30.4183V17.2096H32.2697ZM40.7308 8.33497V6.57471H38.9961V8.33497H40.7308ZM40.7308 17.2096V9.31779H38.9961V17.2096H40.7308ZM44.4164 17.2096V6.57471H42.6818V17.2096H44.4164ZM49.8877 17.4003C51.8994 17.4003 53.0948 16.1095 53.4446 14.8479H51.7391C51.433 15.5961 50.7332 15.9481 49.8148 15.9481C48.8236 15.9481 47.8032 15.2293 47.6866 13.7625H53.532C53.6925 11.1221 52.1763 9.14176 49.7711 9.14176C47.5553 9.14176 45.9227 10.8287 45.9227 13.2051C45.9227 15.4787 47.3658 17.4003 49.8877 17.4003ZM51.7683 12.4862H47.6866C47.8469 11.0047 48.9547 10.506 49.7711 10.506C50.7915 10.506 51.7245 11.2541 51.7683 12.4862ZM58.4713 17.4003C60.1477 17.4003 61.7659 16.3589 62.1156 14.5106H60.4247C60.1914 15.5667 59.3605 15.9481 58.5004 15.9481C57.48 15.9481 56.4888 15.1413 56.4888 13.2637C56.4888 11.4008 57.4509 10.594 58.5443 10.594C59.4918 10.594 60.206 11.1807 60.3664 12.0168H62.0573C61.7513 10.2713 60.2643 9.14176 58.5443 9.14176C56.1972 9.14176 54.6958 10.9314 54.6958 13.2784C54.6958 15.6254 56.1972 17.4003 58.4713 17.4003ZM66.9937 17.4003C68.9033 17.4003 70.8567 16.1388 70.8567 13.2784C70.8567 10.4326 68.9033 9.14176 66.9937 9.14176C65.0841 9.14176 63.1306 10.4326 63.1306 13.2784C63.1306 16.1388 65.0841 17.4003 66.9937 17.4003ZM66.9937 15.9775C65.8858 15.9775 64.9237 15.112 64.9237 13.2784C64.9237 11.4594 65.8858 10.5646 66.9937 10.5646C68.1015 10.5646 69.0636 11.4594 69.0636 13.2784C69.0636 15.112 68.1015 15.9775 66.9937 15.9775ZM74.1385 8.33497V6.57471H72.4037V8.33497H74.1385ZM74.1385 17.2096V9.31779H72.4037V17.2096H74.1385ZM77.824 17.2096V13.0143C77.824 11.5915 78.3051 10.5646 79.6462 10.5646C80.9873 10.5646 81.1332 11.6208 81.1332 12.677V17.2096H82.8678V12.2516C82.8678 10.3739 82.0953 9.14176 80.2001 9.14176C79.0923 9.14176 78.2759 9.59649 77.824 10.4179V9.31779H76.0893V17.2096H77.824Z" fill="white"/>
</g>
<defs>
<clipPath id="clip0_11003_18183">
<rect width="83" height="24" fill="white"/>
</clipPath>
</defs>
</svg>

<svg xmlns="http://www.w3.org/2000/svg" fill="none" viewBox="0 0 83 24">
  <g clip-path="url(#filecoin-logo-light_svg__a)">
    <path fill="#0090FF" fill-rule="evenodd" d="M11.91 24C5.336 24.025-.03 18.605 0 11.943.03 5.358 5.37-.039 11.988 0c6.523.04 11.881 5.42 11.83 12.101-.05 6.556-5.354 11.92-11.908 11.899Z" clip-rule="evenodd"/>
    <path fill="#fff" fill-rule="evenodd" d="m13.389 11.03 3.1.441.249-.897-3.207-.478c.371-1.323.692-2.587 1.092-3.826.132-.408.427-.79.728-1.107.394-.415.94-.324 1.274.133.14.19.271.393.44.556.213.209.529.31.744.107.141-.133.137-.447.15-.682.005-.095-.106-.207-.182-.294-.374-.426-.878-.577-1.411-.6-1.188-.05-2.041.561-2.71 1.484-.664.915-.955 1.99-1.272 3.053-.092.31-.171.625-.264.965L8.71 9.39l-.118.911 3.33.517-.432 1.837-3.183-.448-.118.901 3.086.475c0 .116.012.184-.002.245-.326 1.399-.628 2.804-.994 4.191-.174.662-.455 1.301-1 1.766-.45.383-.944.319-1.282-.156-.153-.214-.28-.468-.482-.618-.147-.11-.474-.176-.583-.088-.16.13-.276.42-.262.632.012.188.191.409.356.537.556.431 1.21.494 1.873.363 1.11-.22 1.893-.919 2.379-1.906.38-.776.666-1.605.936-2.43.245-.747.41-1.52.618-2.308l3.25.475.258-.903-3.328-.493.377-1.859Z" clip-rule="evenodd"/>
    <path fill="#fff" d="M32.27 17.21v-4.694h5.204v-1.54H32.27V8.13h5.525V6.575h-7.377V17.21h1.852Zm8.46-8.875v-1.76h-1.734v1.76h1.735Zm0 8.875V9.318h-1.734v7.892h1.735Zm3.686 0V6.575h-1.734V17.21h1.734Zm5.472.19c2.011 0 3.207-1.29 3.557-2.552h-1.706c-.306.748-1.006 1.1-1.924 1.1-.991 0-2.012-.719-2.128-2.186h5.845c.16-2.64-1.356-4.62-3.76-4.62-2.217 0-3.85 1.687-3.85 4.063 0 2.274 1.444 4.195 3.966 4.195Zm1.88-4.914h-4.081c.16-1.481 1.268-1.98 2.084-1.98 1.02 0 1.953.748 1.997 1.98Zm6.703 4.914c1.677 0 3.295-1.041 3.645-2.89h-1.691c-.234 1.057-1.064 1.438-1.925 1.438-1.02 0-2.011-.807-2.011-2.684 0-1.863.962-2.67 2.055-2.67.948 0 1.662.587 1.822 1.423h1.691c-.306-1.746-1.793-2.875-3.513-2.875-2.347 0-3.848 1.79-3.848 4.136 0 2.347 1.501 4.122 3.775 4.122Zm8.523 0c1.91 0 3.863-1.261 3.863-4.122 0-2.845-1.954-4.136-3.863-4.136-1.91 0-3.863 1.29-3.863 4.136 0 2.86 1.953 4.122 3.863 4.122Zm0-1.422c-1.108 0-2.07-.866-2.07-2.7 0-1.819.962-2.713 2.07-2.713 1.108 0 2.07.894 2.07 2.713 0 1.834-.962 2.7-2.07 2.7Zm7.144-7.643v-1.76h-1.734v1.76h1.734Zm0 8.875V9.318h-1.734v7.892h1.734Zm3.686 0v-4.196c0-1.422.481-2.45 1.822-2.45 1.341 0 1.487 1.057 1.487 2.113v4.533h1.735v-4.958c0-1.878-.773-3.11-2.668-3.11-1.108 0-1.924.454-2.376 1.276v-1.1h-1.735v7.892h1.735Z"/>
  </g>
  <defs>
    <clipPath id="filecoin-logo-light_svg__a">
      <path fill="#fff" d="M0 0h83v24H0z"/>
    </clipPath>
  </defs>
</svg>
